img/rounds-tablet.svg

<svg width="930" height="783" viewBox="0 0 930 783" fill="none" xmlns="http://www.w3.org/2000/svg">
<path d="M768.148 121.388C747.899 79.2168 765.67 28.6153 807.841 8.36604C850.012 -11.8832 900.613 5.88773 920.862 48.0586C941.112 90.2294 923.341 140.831 881.17 161.08C838.999 181.329 788.398 163.559 768.148 121.388Z" fill="#957163" fill-opacity="0.12"/>
<path d="M566.316 434.637C527.446 353.686 561.559 256.552 642.51 217.682C723.461 178.811 820.595 212.924 859.465 293.875C898.335 374.826 864.222 471.96 783.272 510.83C702.321 549.7 605.187 515.587 566.316 434.637Z" fill="#957163" fill-opacity="0.1"/>
<path d="M25.0303 639.549C-35.1855 514.144 17.6605 363.669 143.065 303.453C268.47 243.237 418.945 296.083 479.161 421.488C539.377 546.893 486.531 697.368 361.126 757.584C235.721 817.8 85.2462 764.954 25.0303 639.549Z" fill="#957163" fill-opacity="0.12"/>
</svg>

<svg width="930" height="783" fill="none" xmlns="http://www.w3.org/2000/svg"><path d="M768.148 121.388c-20.249-42.171-2.478-92.773 39.693-113.022 42.171-20.25 92.772-2.478 113.021 39.693 20.25 42.17 2.479 92.772-39.692 113.021-42.171 20.249-92.772 2.479-113.022-39.692z" fill="#957163" fill-opacity=".12"/><path d="M566.316 434.637c-38.87-80.951-4.757-178.085 76.194-216.955 80.951-38.871 178.085-4.758 216.955 76.193 38.87 80.951 4.757 178.085-76.193 216.955-80.951 38.87-178.085 4.757-216.956-76.193z" fill="#957163" fill-opacity=".1"/><path d="M25.03 639.549c-60.216-125.405-7.37-275.88 118.035-336.096 125.405-60.216 275.88-7.37 336.096 118.035 60.216 125.405 7.37 275.88-118.035 336.096-125.405 60.216-275.88 7.37-336.096-118.035z" fill="#957163" fill-opacity=".12"/></svg>
